X:93
T: Die dienende Schwester
N: Q0075v
O: Mitteleuropa, Deutschland (BRD) , Rheinprovinz
R: Ballade, Adelige als Dienstmagd, Tod; Kinder - Spiel, Tanz
M: 4/4
L: 1/8
K: F
F2 | F2c2cBA2 | A3GG2
G2 | G2d2dcB2 | B3cA2
F2 | F2f2fed2 | d3ccA
c2 | c2c2dcB2 | B2c2A2

@@@ Tune index: 1148
